Simply-Black-Circles/scalable/apps/empathy.svg

<svg xmlns="http://www.w3.org/2000/svg" width="48" height="48" viewBox="0 0 12.7 12.7"><path fill="#1a1a1a" d="M6.34.07a6.29 6.29 0 0 0-6.29 6.3 6.29 6.29 0 0 0 6.3 6.28 6.29 6.29 0 0 0 6.28-6.29A6.29 6.29 0 0 0 6.34.07zm-.01.94a5.4 5.4 0 0 1 5.4 5.4 5.4 5.4 0 0 1-5.4 5.41 5.4 5.4 0 0 1-5.41-5.4A5.4 5.4 0 0 1 6.32 1zm.2 1.11a6.26 6.26 0 0 0-.48.03l-.36.03c-2.37.35-4.13 1.99-3.97 3.76.1 1.15.99 2.1 2.24 2.59l-.52 2.05 2.32-1.69h.02c.29.02.58.02.87 0 2.56-.24 4.5-1.94 4.33-3.8-.16-1.74-2.11-3-4.46-2.97zm-.44.91a.58.58 0 0 1 .1 0 .37.37 0 0 1 .32.42c.01.93.1 1.84.12 2.76l-.43.05c-.2-.93-.27-1.88-.47-2.83l-.01-.07c0-.16.18-.31.37-.33zm.41 3.92a.75.75 0 0 1 .1 0 .4.4 0 0 1 .3.18.03.03 0 0 0 .01 0c.15.2.05.54-.18.63-.24.1-.57-.07-.6-.34a.43.43 0 0 1 .13-.35.35.35 0 0 1 .24-.12z"/></svg>

<?xml version="1.0" encoding="UTF-8" standalone="no"?>
<svg
   xmlns:dc="http://purl.org/dc/elements/1.1/"
   xmlns:cc="http://creativecommons.org/ns#"
   xmlns:rdf="http://www.w3.org/1999/02/22-rdf-syntax-ns#"
   xmlns:svg="http://www.w3.org/2000/svg"
   xmlns="http://www.w3.org/2000/svg"
   xmlns:sodipodi="http://sodipodi.sourceforge.net/DTD/sodipodi-0.dtd"
   xmlns:inkscape="http://www.inkscape.org/namespaces/inkscape"
   width="48"
   height="48"
   viewBox="0 0 12.7 12.7"
   version="1.1"
   id="svg4"
   sodipodi:docname="empathy.svg"
   inkscape:version="0.92.4 (5da689c313, 2019-01-14)">
  <metadata
     id="metadata10">
    <rdf:RDF>
      <cc:Work
         rdf:about="">
        <dc:format>image/svg+xml</dc:format>
        <dc:type
           rdf:resource="http://purl.org/dc/dcmitype/StillImage" />
        <dc:title></dc:title>
      </cc:Work>
    </rdf:RDF>
  </metadata>
  <defs
     id="defs8" />
  <sodipodi:namedview
     pagecolor="#ffffff"
     bordercolor="#666666"
     borderopacity="1"
     objecttolerance="10"
     gridtolerance="10"
     guidetolerance="10"
     inkscape:pageopacity="0"
     inkscape:pageshadow="2"
     inkscape:window-width="1087"
     inkscape:window-height="480"
     id="namedview6"
     showgrid="false"
     inkscape:zoom="4.9166667"
     inkscape:cx="2.1355932"
     inkscape:cy="24"
     inkscape:window-x="0"
     inkscape:window-y="25"
     inkscape:window-maximized="0"
     inkscape:current-layer="svg4" />
  <path
     d="M 6.34,0.07 A 6.29,6.29 0 0 0 0.05,6.37 6.29,6.29 0 0 0 6.35,12.65 6.29,6.29 0 0 0 12.63,6.36 6.29,6.29 0 0 0 6.34,0.07 Z M 6.33,1.01 a 5.4,5.4 0 0 1 5.4,5.4 5.4,5.4 0 0 1 -5.4,5.41 A 5.4,5.4 0 0 1 0.92,6.42 5.4,5.4 0 0 1 6.32,1 Z m 0.2,1.11 A 6.26,6.26 0 0 0 6.05,2.15 L 5.69,2.18 C 3.32,2.53 1.56,4.17 1.72,5.94 1.82,7.09 2.71,8.04 3.96,8.53 L 3.44,10.58 5.76,8.89 h 0.02 c 0.29,0.02 0.58,0.02 0.87,0 2.56,-0.24 4.5,-1.94 4.33,-3.8 C 10.82,3.35 8.87,2.09 6.52,2.12 Z M 6.09,3.03 a 0.58,0.58 0 0 1 0.1,0 0.37,0.37 0 0 1 0.32,0.42 c 0.01,0.93 0.1,1.84 0.12,2.76 L 6.2,6.26 C 6,5.33 5.93,4.38 5.73,3.43 L 5.72,3.36 C 5.72,3.2 5.9,3.05 6.09,3.03 Z M 6.5,6.95 a 0.75,0.75 0 0 1 0.1,0 0.4,0.4 0 0 1 0.3,0.18 0.03,0.03 0 0 0 0.01,0 C 7.06,7.33 6.96,7.67 6.73,7.76 6.49,7.86 6.16,7.69 6.13,7.42 A 0.43,0.43 0 0 1 6.26,7.07 0.35,0.35 0 0 1 6.5,6.95 Z"
     id="path2"
     inkscape:connector-curvature="0"
     style="fill:#1a1a1a" />
</svg>
